wp-content/themes/xevos-cyber-theme/assets/img/prehled-skoleni/kapacita.svg

<svg fill="none" height="24" viewBox="0 0 24 24" width="24" xmlns="http://www.w3.org/2000/svg" xmlns:xlink="http://www.w3.org/1999/xlink"><mask id="a" height="24" maskUnits="userSpaceOnUse" width="24" x="0" y="0"><path d="m0 0h24v24h-24z" fill="#d9d9d9"/></mask><g mask="url(#a)"><path d="m10.6 16.2 7.05-7.05-1.4-1.4-5.65 5.65-2.85-2.85-1.4 1.4zm-5.6 4.8c-.55 0-1.02083-.1958-1.4125-.5875s-.5875-.8625-.5875-1.4125v-14c0-.55.19583-1.02083.5875-1.4125s.8625-.5875 1.4125-.5875h14c.55 0 1.0208.19583 1.4125.5875s.5875.8625.5875 1.4125v14c0 .55-.1958 1.0208-.5875 1.4125s-.8625.5875-1.4125.5875zm0-2h14v-14h-14z" fill="#0bf"/></g></svg>

<svg width="24" height="24" viewBox="0 0 24 24" fill="none" xmlns="http://www.w3.org/2000/svg">
<mask id="mask0_594_12270" style="mask-type:alpha" maskUnits="userSpaceOnUse" x="0" y="0" width="24" height="24">
<rect width="24" height="24" fill="#D9D9D9"/>
</mask>
<g mask="url(#mask0_594_12270)">
<path d="M10.6 16.2L17.65 9.15L16.25 7.75L10.6 13.4L7.75 10.55L6.35 11.95L10.6 16.2ZM5 21C4.45 21 3.97917 20.8042 3.5875 20.4125C3.19583 20.0208 3 19.55 3 19V5C3 4.45 3.19583 3.97917 3.5875 3.5875C3.97917 3.19583 4.45 3 5 3H19C19.55 3 20.0208 3.19583 20.4125 3.5875C20.8042 3.97917 21 4.45 21 5V19C21 19.55 20.8042 20.0208 20.4125 20.4125C20.0208 20.8042 19.55 21 19 21H5ZM5 19H19V5H5V19Z" fill="#00BBFF"/>
</g>
</svg>
